dist/svg/treat-investigation.svg

<!-- Generated by Trend Micro Style Portal -->
<svg version="1.1" xmlns="http://www.w3.org/2000/svg" width="16" height="16" viewBox="0 0 16 16">
  <title>treat-investigation</title>
  <path fill="rgb(34,34,34)" d="M16 14.593l-2.54-2.54c0.961-1.248 1.54-2.833 1.54-4.553 0-4.142-3.358-7.5-7.5-7.5s-7.5 3.358-7.5 7.5c0 4.142 3.358 7.5 7.5 7.5 1.72 0 3.305-0.579 4.571-1.553l-0.018 0.013 2.541 2.54zM1 7.5c0-0.001 0-0.003 0-0.004 0-3.59 2.91-6.5 6.5-6.5s6.5 2.91 6.5 6.5c0 1.465-0.485 2.817-1.302 3.904l0.012-0.017-1.623 1.535c-1.010 0.678-2.253 1.082-3.59 1.082-3.588 0-6.497-2.909-6.497-6.497 0-0.001 0-0.002 0-0.003v0zM11.538 10.126c-0.002-0.664-0.54-1.202-1.204-1.204h-0c-0.005-0-0.011-0-0.017-0-0.53 0-0.979 0.352-1.124 0.835l-0.002 0.008c-0.007 0-0.015 0-0.023 0-1.252 0-2.299-0.874-2.565-2.046l-0.003-0.018c0.248-0.326 0.398-0.739 0.401-1.187v-0.001h2.19c0.121 0.521 0.582 0.903 1.131 0.903 0.004 0 0.009-0 0.013-0h-0.001c0.663-0.002 1.2-0.54 1.2-1.204s-0.537-1.202-1.2-1.204h-0c-0.004-0-0.008-0-0.013-0-0.55 0-1.010 0.382-1.13 0.895l-0.002 0.008h-2.278c-0.259-0.825-1.017-1.413-1.912-1.413-1.105 0-2 0.895-2 2s0.895 2 2 2c0.418 0 0.807-0.128 1.128-0.348l-0.007 0.004c0.405 1.29 1.59 2.21 2.99 2.21 0.007 0 0.014-0 0.020-0h-0.001c0.127 0.555 0.616 0.963 1.201 0.963 0.001 0 0.002 0 0.003 0h-0c0.664-0.002 1.202-0.54 1.204-1.204v-0zM5 7.5c-0.552 0-1-0.448-1-1s0.448-1 1-1c0.552 0 1 0.448 1 1v0c-0.001 0.552-0.448 0.999-1 1h-0z"></path>
</svg>

<svg width="16" height="16" viewBox="0 0 16 16" fill="rgb(34, 34, 34)" xmlns="http://www.w3.org/2000/svg"><title>treat-investigation</title><path d="M16 14.593L13.46 12.053C14.421 10.805 15 9.22 15 7.5C15 3.358 11.642 0 7.5 0C3.358 0 0 3.358 0 7.5C0 11.642 3.358 15 7.5 15C9.22 15 10.805 14.421 12.071 13.447L12.053 13.46L14.594 16L16 14.593ZM1 7.5C1 7.499 1 7.497 1 7.496C1 3.906 3.91 0.996 7.5 0.996C11.09 0.996 14 3.906 14 7.496C14 8.961 13.515 10.313 12.698 11.4L12.71 11.383L11.087 12.918C10.077 13.596 8.834 14 7.497 14C3.909 14 1 11.091 1 7.503C1 7.502 1 7.501 1 7.5ZM11.538 10.126C11.536 9.462 10.998 8.924 10.334 8.922C10.329 8.922 10.323 8.922 10.317 8.922C9.787 8.922 9.338 9.274 9.193 9.757L9.191 9.765C9.184 9.765 9.176 9.765 9.168 9.765C7.916 9.765 6.869 8.891 6.603 7.719L6.6 7.701C6.848 7.375 6.998 6.962 7.001 6.514L9.191 6.513C9.312 7.034 9.773 7.416 10.322 7.416C10.326 7.416 10.331 7.416 10.335 7.416H10.334C10.997 7.414 11.534 6.876 11.534 6.212C11.534 5.548 10.997 5.01 10.334 5.008C10.33 5.008 10.326 5.008 10.321 5.008C9.771 5.008 9.311 5.39 9.191 5.903L9.189 5.911H6.911C6.652 5.086 5.894 4.498 4.999 4.498C3.894 4.498 2.999 5.393 2.999 6.498C2.999 7.603 3.894 8.498 4.999 8.498C5.417 8.498 5.806 8.37 6.127 8.15L6.12 8.154C6.525 9.444 7.71 10.364 9.11 10.364C9.117 10.364 9.124 10.364 9.13 10.364H9.129C9.256 10.919 9.745 11.327 10.33 11.327C10.331 11.327 10.332 11.327 10.333 11.327C10.997 11.325 11.535 10.787 11.537 10.123L11.538 10.126ZM5 7.5C4.448 7.5 4 7.052 4 6.5C4 5.948 4.448 5.5 5 5.5C5.552 5.5 6 5.948 6 6.5C5.999 7.052 5.552 7.499 5 7.5Z" fill="rgb(34, 34, 34)" fill-opacity="1.00"/></svg>
